X: 1
T: Miss Gordon of Park
C: William Marshall
S: arr. T. Traub 5-15-01
R: Jig
M: 6/8
K: F
L: 1/8
|:\
"F"F2 F c<AF | "F"F>GF "Bb"[d3F3] | "F"c<AF F2 A | "C"G<EC C>DE |\
"F"F2 F c<AF | "F"F>GF "F/A"a2 a | "G"gaf efd |1 "C7"cdB ABG :|2 "C7"c3 c3 ||
[|\
"C"c2 c gec | "C"cdc c2 a | "Bb"[b2c2] g "F"[a2c2] f | "C"g2 f edc |\
"C"c2 c gec | "C"cdc "Bb"[b3c3] | "F"agf "C"cde | "F"f3 F2 c |]
[|\
"C"c2 c gec | "F"c>dc c2 a | "Bb"b2 g "F"a2 f | "Gm"g2 f "C"edc |\
"F"[f3A3] cAc | "Bb"d2 B2 d | "C"cba gfe | "F"fcA F3 |]
